symbolic/22x22/actions/playlist-generator.svg

<svg xmlns="http://www.w3.org/2000/svg" width="22" height="22" version="1.1">
 <defs>
  <style id="current-color-scheme" type="text/css">
   .ColorScheme-Text { color:#323a41; } .ColorScheme-Highlight { color:#4285f4; } .ColorScheme-NeutralText { color:#ff9800; } .ColorScheme-PositiveText { color:#4caf50; } .ColorScheme-NegativeText { color:#f44336; }
  </style>
 </defs>
 <g transform="translate(3,3)">
  <path style="fill:currentColor" class="ColorScheme-Text" d="M 11.109,1 C 10.85,1 10.602,1.1093 10.418,1.2931 L 1.293,10.418 C 0.90259,10.808 0.90259,11.442 1.293,11.832 L 4.168,14.707 C 4.5605,15.099 5.1915,15.097 5.582,14.707 L 14.707,5.5821 C 15.095,5.1938 15.101,4.5623 14.707,4.1681 L 11.832,1.2931 C 11.641,1.1017 11.38,1 11.109,1 Z M 7.6367,6.9259 9.0742,8.3634 4.875,12.586 3.4141,11.125 Z M 5,3 A 2,2 0 0 1 3,5 2,2 0 0 1 1,3 2,2 0 0 1 3,1 2,2 0 0 1 5,3 Z"/>
 </g>
</svg>

<svg xmlns="http://www.w3.org/2000/svg" width="22" height="22"><defs><style id="current-color-scheme" type="text/css"></style></defs><path style="fill:currentColor;color:#323a41" d="M11.109 1a.983.983 0 0 0-.691.293l-9.125 9.125a1 1 0 0 0 0 1.414l2.875 2.875a.999.999 0 0 0 1.414 0l9.125-9.125a.999.999 0 0 0 0-1.414l-2.875-2.875A1.017 1.017 0 0 0 11.109 1zM7.637 6.926l1.437 1.437-4.199 4.223-1.46-1.461zM5 3a2 2 0 0 1-2 2 2 2 0 0 1-2-2 2 2 0 0 1 2-2 2 2 0 0 1 2 2z" transform="translate(3 3)"/></svg>
